X: 53
T:Kjerringa med staven
M:3/4
L:1/8
Q:280
C:anon.
R:Springdans
O:Norway
Z:Transcribed by Frank Nordberg - http://www.musicaviva.com
K:G
d2d2B>B|d4B2|d2d>d B>B|d4B2|
w:Kjer-rin-ga med sta-ven, h\ogt opp-i Ha-ka-da-len.
|:G>A B>c d>B|A>B c>d B2:|G2B2A>F|G4G2|]
w:\AAt-te pot-ter r\om-me, fi-re mer-ker sm\or, Kjer-rin-ga med sta-ven.
w:s\aa[ext] kin-na Ka-ri, O-la had-de f\or.
W:
W: From "Falaleiro" http://home.t-online.de/home/pheld/homepage.htm

